X:079 
T:I'd Rather Be Married than Left (slide) 
F:file ID: cre.5/079id_rath
B:CRE5.078 (B'fhearr Liom a Bheith PÃÂÃÂÃÂÃÂ³sta nÃÂÃÂÃÂÃÂ¡ TrÃÂÃÂÃÂÃÂ©igthe)
N:There's a 6/8 jig version of this in CRE2 (file ID cre.2/137id_rather).
M:12/8
Q:160
R:jig
K:D
A|FAA AFA B2A A2A|FAA AFA f2e e2A|
FAA AFA d2e f2e|dcB ABc d2D D2:|
|:f/g/|a2f gfe f2d def|a2f gfg b2e efg|
agf gfe d2e f2e|dcB ABc d2D D2:|

%%%

